src/icons/post-offices.icon.svg

<svg width="24px" height="24px" viewBox="0 0 20 14" version="1.1" xmlns="http://www.w3.org/2000/svg" xmlns:xlink="http://www.w3.org/1999/xlink">
    <!-- Generator: Sketch 50.2 (55047) - http://www.bohemiancoding.com/sketch -->
    <desc>Created with Sketch.</desc>
    <defs>
        <path d="M15.7618636,6.42982561 L15.7618636,12.2874362 L20.6136859,12.2874362 L20.6136859,10.6131654 C20.6136859,10.578968 20.5964747,10.5458609 20.565888,10.5246819 L19.1051949,9.51319027 C18.9967187,9.43807336 18.911036,9.33286443 18.8580268,9.20969488 L17.6616368,6.42982561 L15.7618636,6.42982561 Z M14.3755495,6.42982561 L4.98024694,6.42982561 L4.98024694,7.38714885 C4.98024694,7.78198429 4.66990995,8.10206166 4.28708987,8.10206166 C3.9042698,8.10206166 3.59393281,7.78198429 3.59393281,7.38714885 L3.59393281,5.71491281 C3.59393281,5.32007737 3.9042698,5 4.28708987,5 L18.1123315,5 C18.386377,5 18.6346949,5.16652533 18.7458781,5.42486487 L20.0439844,8.44107685 L21.3386269,9.33758279 C21.7516819,9.62359318 22,10.1012517 22,10.6131654 L22,16.7136539 C22,17.1084893 21.689663,17.4285667 21.3068429,17.4285667 L20.2669791,17.4285667 C19.9597024,18.3438115 19.1099089,19 18.1124126,19 C16.9708053,19 16.0226619,18.1405128 15.8598283,17.0168594 L9.77170992,17.0168594 C9.60887628,18.1405128 8.66073285,19 7.51912559,19 C6.50682695,19 5.64664738,18.3241921 5.35123937,17.3876516 L4.26699045,17.3876516 C3.88417037,17.3876516 3.57383338,17.0675743 3.57383338,16.6727388 L3.57383338,12.3544455 C3.57383338,11.9596101 3.88417037,11.6395327 4.26699045,11.6395327 C4.62790155,11.6395327 4.92438864,11.9240221 4.95714274,12.2874362 L14.3755495,12.2874362 L14.3755495,6.42982561 Z M20.6136859,13.7172618 L4.96014752,13.7172618 L4.96014752,15.957826 L5.35123937,15.957826 C5.64664738,15.0212856 6.50682695,14.3454777 7.51912559,14.3454777 C8.39210055,14.3454777 9.15194755,14.8480627 9.5340215,15.5870338 L16.0975167,15.5870338 C16.4795906,14.8480627 17.2394376,14.3454777 18.1124126,14.3454777 C19.139394,14.3454777 20.0098115,15.0410321 20.2927952,15.998741 L20.6136859,15.998741 L20.6136859,13.7172618 Z M18.1124126,17.5701744 C18.6065213,17.5701744 19.0033818,17.1662437 19.0033818,16.6727388 C19.0033818,16.179234 18.6065213,15.7753033 18.1124126,15.7753033 C17.6183038,15.7753033 17.2214434,16.179234 17.2214434,16.6727388 C17.2214434,17.1662437 17.6183038,17.5701744 18.1124126,17.5701744 Z M7.51912559,17.5701744 C8.01323433,17.5701744 8.41009476,17.1662437 8.41009476,16.6727388 C8.41009476,16.179234 8.01323433,15.7753033 7.51912559,15.7753033 C7.02501685,15.7753033 6.62815642,16.179234 6.62815642,16.6727388 C6.62815642,17.1662437 7.02501685,17.5701744 7.51912559,17.5701744 Z M5.12453878,10.0877045 C5.50735886,10.0877045 5.81769585,10.4077818 5.81769585,10.8026173 C5.81769585,11.1974527 5.50735886,11.5175301 5.12453878,11.5175301 L3.50361764,11.5175301 C3.12079756,11.5175301 2.81046057,11.1974527 2.81046057,10.8026173 C2.81046057,10.4077818 3.12079756,10.0877045 3.50361764,10.0877045 L5.12453878,10.0877045 Z M2.69315707,9.86773131 C2.31033699,9.86773131 2,9.54765394 2,9.1528185 C2,8.75798306 2.31033699,8.4379057 2.69315707,8.4379057 L5.93499936,8.4379057 C6.31781943,8.4379057 6.62815642,8.75798306 6.62815642,9.1528185 C6.62815642,9.54765394 6.31781943,9.86773131 5.93499936,9.86773131 L2.69315707,9.86773131 Z" id="path-1"></path>
    </defs>
    <g id="styleguide" stroke="none" stroke-width="1" fill="none" fill-rule="evenodd">
        <g id="icons" transform="translate(-482.000000, -227.000000)">
            <g id="IconPostOffices" transform="translate(480.000000, 222.000000)">
                <rect id="Rectangle-2" fill="#D8D8D8" opacity="0" x="0" y="0" width="24" height="24"></rect>
                <mask id="mask-2" fill="white">
                    <use xlink:href="#path-1"></use>
                </mask>
                <use id="Mask" fill="currentColor" fill-rule="nonzero" xlink:href="#path-1"></use>
            </g>
        </g>
    </g>
</svg>

<svg width="24" height="24" viewBox="0 0 20 14" xmlns="http://www.w3.org/2000/svg" xmlns:xlink="http://www.w3.org/1999/xlink"><defs><path d="M15.762 6.43v5.857h4.852v-1.674a.108.108 0 00-.048-.088l-1.46-1.012a.71.71 0 01-.248-.303l-1.196-2.78h-1.9zm-1.386 0H4.98v.957c0 .395-.31.715-.693.715a.704.704 0 01-.693-.715V5.715c0-.395.31-.715.693-.715h13.825c.274 0 .523.167.634.425l1.298 3.016 1.295.897c.413.286.661.763.661 1.275v6.1c0 .395-.31.716-.693.716h-1.04C19.96 18.344 19.11 19 18.112 19c-1.141 0-2.09-.86-2.252-1.983H9.772C9.609 18.14 8.66 19 7.519 19c-1.012 0-1.872-.676-2.168-1.612H4.267a.704.704 0 01-.693-.715v-4.319c0-.394.31-.714.693-.714.36 0 .657.284.69.647h9.419V6.43zm6.238 7.287H4.96v2.24h.391c.296-.936 1.156-1.612 2.168-1.612.873 0 1.633.503 2.015 1.242h6.564a2.272 2.272 0 012.014-1.242c1.027 0 1.898.696 2.18 1.654h.322v-2.282zm-2.502 3.853a.894.894 0 00.891-.897.894.894 0 00-.89-.898.894.894 0 00-.892.898c0 .493.397.897.891.897zm-10.593 0a.894.894 0 00.891-.897.894.894 0 00-.89-.898.894.894 0 00-.892.898c0 .493.397.897.891.897zm-2.394-7.482c.382 0 .693.32.693.715 0 .394-.31.715-.693.715H3.504a.704.704 0 01-.694-.715c0-.395.31-.715.694-.715h1.62zm-2.432-.22A.704.704 0 012 9.153c0-.395.31-.715.693-.715h3.242c.383 0 .693.32.693.715 0 .395-.31.715-.693.715H2.693z" id="a"/></defs><use fill="currentColor" fill-rule="nonzero" xlink:href="#a" transform="translate(-2 -5)"/></svg>
